inst/assets/svg/wi-day-rain.svg

<?xml version="1.0" encoding="UTF-8"?>
<svg xmlns="http://www.w3.org/2000/svg" xmlns:xlink="http://www.w3.org/1999/xlink" width="30pt" height="30pt" viewBox="0 0 30 30" version="1.1">
<g id="surface111">
<path style=" stroke:none;fill-rule:nonzero;fill:rgb(0%,0%,0%);fill-opacity:1;" d="M 1.511719 16.890625 C 1.511719 18.21875 1.96875 19.371094 2.898438 20.328125 C 3.828125 21.289063 4.960938 21.800781 6.308594 21.859375 C 6.421875 21.859375 6.480469 21.800781 6.480469 21.691406 L 6.480469 20.351563 C 6.480469 20.238281 6.421875 20.179688 6.308594 20.179688 C 5.449219 20.140625 4.71875 19.789063 4.121094 19.148438 C 3.519531 18.511719 3.21875 17.75 3.21875 16.890625 C 3.21875 16.070313 3.5 15.351563 4.070313 14.730469 C 4.640625 14.109375 5.339844 13.761719 6.171875 13.660156 L 6.699219 13.609375 C 6.828125 13.609375 6.898438 13.550781 6.898438 13.441406 L 6.96875 12.898438 C 7.078125 11.820313 7.53125 10.910156 8.339844 10.179688 C 9.148438 9.449219 10.101563 9.078125 11.191406 9.078125 C 12.28125 9.078125 13.230469 9.449219 14.050781 10.179688 C 14.871094 10.910156 15.328125 11.820313 15.449219 12.898438 L 15.519531 13.46875 C 15.519531 13.589844 15.578125 13.660156 15.691406 13.660156 L 17.308594 13.660156 C 18.199219 13.660156 18.960938 13.980469 19.609375 14.621094 C 20.261719 15.261719 20.578125 16.011719 20.578125 16.890625 C 20.578125 17.761719 20.28125 18.511719 19.679688 19.148438 C 19.078125 19.789063 18.351563 20.128906 17.5 20.179688 C 17.378906 20.179688 17.308594 20.238281 17.308594 20.351563 L 17.308594 21.691406 C 17.308594 21.800781 17.371094 21.859375 17.5 21.859375 C 18.828125 21.820313 19.960938 21.308594 20.890625 20.351563 C 21.820313 19.378906 22.28125 18.230469 22.28125 16.898438 C 22.28125 16.179688 22.140625 15.511719 21.859375 14.890625 C 22.640625 13.921875 23.03125 12.820313 23.03125 11.578125 C 23.03125 10.628906 22.789063 9.75 22.320313 8.941406 C 21.851563 8.128906 21.210938 7.488281 20.398438 7.019531 C 19.589844 6.550781 18.71875 6.320313 17.78125 6.320313 C 16.21875 6.320313 14.929688 6.898438 13.898438 8.058594 C 13.078125 7.621094 12.179688 7.398438 11.191406 7.398438 C 9.78125 7.398438 8.519531 7.839844 7.429688 8.71875 C 6.339844 9.601563 5.640625 10.71875 5.328125 12.078125 C 4.21875 12.339844 3.308594 12.921875 2.589844 13.820313 C 1.871094 14.71875 1.511719 15.738281 1.511719 16.890625 Z M 6.910156 23.75 C 6.910156 23.921875 6.960938 24.078125 7.070313 24.238281 C 7.179688 24.398438 7.339844 24.511719 7.558594 24.570313 C 7.671875 24.589844 7.761719 24.609375 7.828125 24.609375 C 8.21875 24.609375 8.480469 24.398438 8.601563 23.96875 L 10.179688 18.089844 C 10.25 17.851563 10.21875 17.628906 10.101563 17.421875 C 9.980469 17.210938 9.800781 17.089844 9.570313 17.039063 C 9.351563 16.96875 9.140625 16.988281 8.941406 17.109375 C 8.738281 17.21875 8.601563 17.390625 8.53125 17.621094 L 6.949219 23.53125 C 6.929688 23.660156 6.910156 23.730469 6.910156 23.75 Z M 9.519531 26.828125 C 9.519531 27.019531 9.570313 27.191406 9.671875 27.351563 C 9.769531 27.511719 9.941406 27.609375 10.191406 27.648438 C 10.300781 27.671875 10.390625 27.691406 10.449219 27.691406 C 10.609375 27.691406 10.761719 27.628906 10.898438 27.519531 C 11.039063 27.398438 11.128906 27.238281 11.171875 27.039063 L 13.570313 18.109375 C 13.628906 17.878906 13.609375 17.660156 13.5 17.46875 C 13.390625 17.28125 13.21875 17.140625 13 17.070313 C 12.769531 17 12.550781 17.019531 12.351563 17.140625 C 12.148438 17.25 12.011719 17.421875 11.949219 17.648438 L 9.550781 26.578125 C 9.53125 26.730469 9.519531 26.820313 9.519531 26.828125 Z M 9.941406 4.601563 C 9.941406 4.839844 10.019531 5.039063 10.191406 5.210938 L 10.839844 5.871094 C 11.03125 6.019531 11.238281 6.089844 11.460938 6.089844 C 11.671875 6.089844 11.871094 6.011719 12.039063 5.859375 C 12.210938 5.699219 12.300781 5.511719 12.300781 5.269531 C 12.300781 5.03125 12.21875 4.808594 12.058594 4.628906 L 11.421875 3.980469 C 11.238281 3.808594 11.039063 3.730469 10.820313 3.730469 C 10.578125 3.730469 10.371094 3.820313 10.199219 3.988281 C 10.03125 4.160156 9.941406 4.371094 9.941406 4.601563 Z M 13.671875 23.769531 C 13.671875 23.929688 13.71875 24.089844 13.820313 24.238281 C 13.921875 24.390625 14.078125 24.5 14.28125 24.558594 C 14.390625 24.578125 14.480469 24.601563 14.53125 24.601563 C 14.699219 24.601563 14.871094 24.550781 15.019531 24.449219 C 15.171875 24.351563 15.269531 24.191406 15.320313 23.960938 L 16.898438 18.078125 C 16.960938 17.851563 16.941406 17.628906 16.828125 17.441406 C 16.71875 17.238281 16.550781 17.109375 16.328125 17.039063 C 16.089844 16.96875 15.878906 16.988281 15.679688 17.109375 C 15.480469 17.21875 15.351563 17.390625 15.289063 17.621094 L 13.710938 23.53125 C 13.691406 23.679688 13.671875 23.761719 13.671875 23.769531 Z M 15.300781 9.03125 C 16.011719 8.359375 16.828125 8.03125 17.78125 8.03125 C 18.761719 8.03125 19.601563 8.378906 20.28125 9.070313 C 20.96875 9.761719 21.308594 10.601563 21.308594 11.589844 C 21.308594 12.210938 21.140625 12.828125 20.789063 13.441406 C 19.820313 12.46875 18.660156 11.988281 17.300781 11.988281 L 16.96875 11.988281 C 16.699219 10.808594 16.140625 9.828125 15.300781 9.03125 Z M 16.921875 3.78125 C 16.921875 4.011719 17 4.210938 17.171875 4.371094 C 17.339844 4.53125 17.539063 4.609375 17.78125 4.609375 C 18.011719 4.609375 18.210938 4.53125 18.371094 4.378906 C 18.53125 4.21875 18.609375 4.03125 18.609375 3.789063 L 18.609375 1.730469 C 18.609375 1.46875 18.53125 1.261719 18.378906 1.101563 C 18.21875 0.941406 18.03125 0.859375 17.789063 0.859375 C 17.539063 0.859375 17.328125 0.941406 17.171875 1.109375 C 17.011719 1.28125 16.929688 1.480469 16.929688 1.730469 L 16.929688 3.78125 Z M 22.449219 6.058594 C 22.449219 6.300781 22.539063 6.5 22.71875 6.648438 C 22.859375 6.808594 23.039063 6.890625 23.269531 6.910156 C 23.5 6.929688 23.710938 6.839844 23.890625 6.648438 L 25.328125 5.21875 C 25.511719 5.050781 25.589844 4.839844 25.589844 4.589844 C 25.589844 4.351563 25.511719 4.140625 25.339844 3.980469 C 25.171875 3.820313 24.96875 3.738281 24.730469 3.738281 C 24.519531 3.738281 24.328125 3.820313 24.148438 3.988281 L 22.71875 5.429688 C 22.539063 5.601563 22.449219 5.808594 22.449219 6.058594 Z M 23.261719 17.910156 C 23.261719 18.148438 23.339844 18.359375 23.5 18.539063 L 24.148438 19.171875 C 24.328125 19.308594 24.53125 19.378906 24.75 19.378906 L 24.769531 19.398438 C 25 19.398438 25.191406 19.320313 25.351563 19.160156 C 25.511719 19 25.589844 18.789063 25.589844 18.550781 C 25.589844 18.308594 25.5 18.121094 25.328125 17.96875 L 24.710938 17.308594 C 24.53125 17.148438 24.320313 17.070313 24.089844 17.070313 C 23.859375 17.070313 23.660156 17.148438 23.5 17.320313 C 23.339844 17.488281 23.261719 17.671875 23.261719 17.910156 Z M 24.71875 11.578125 C 24.71875 11.820313 24.808594 12.011719 24.980469 12.171875 C 25.160156 12.351563 25.359375 12.429688 25.601563 12.429688 L 27.628906 12.429688 C 27.871094 12.429688 28.070313 12.351563 28.238281 12.179688 C 28.410156 12.011719 28.488281 11.808594 28.488281 11.578125 C 28.488281 11.339844 28.410156 11.140625 28.238281 10.96875 C 28.070313 10.800781 27.871094 10.710938 27.628906 10.710938 L 25.601563 10.710938 C 25.359375 10.710938 25.160156 10.800781 24.980469 10.96875 C 24.800781 11.140625 24.71875 11.339844 24.71875 11.578125 Z M 24.71875 11.578125 "/>
</g>
</svg>

<?xml version="1.0" encoding="utf-8"?>
<!-- Generator: Adobe Illustrator 22.0.1, SVG Export Plug-In . SVG Version: 6.00 Build 0)  -->
<svg version="1.1" id="Layer_1" xmlns="http://www.w3.org/2000/svg" xmlns:xlink="http://www.w3.org/1999/xlink" x="0px" y="0px"
	 viewBox="0 0 30 30" style="enable-background:new 0 0 30 30;" xml:space="preserve">
<path d="M1.51,16.89c0,1.33,0.46,2.48,1.39,3.44s2.06,1.47,3.41,1.53c0.11,0,0.17-0.06,0.17-0.17v-1.34c0-0.11-0.06-0.17-0.17-0.17
	c-0.86-0.04-1.59-0.39-2.19-1.03s-0.9-1.4-0.9-2.26c0-0.82,0.28-1.54,0.85-2.16s1.27-0.97,2.1-1.07l0.53-0.05
	c0.13,0,0.2-0.06,0.2-0.17l0.07-0.54c0.11-1.08,0.56-1.99,1.37-2.72s1.76-1.1,2.85-1.1c1.09,0,2.04,0.37,2.86,1.1
	s1.28,1.64,1.4,2.72l0.07,0.57c0,0.12,0.06,0.19,0.17,0.19h1.62c0.89,0,1.65,0.32,2.3,0.96c0.65,0.64,0.97,1.39,0.97,2.27
	c0,0.87-0.3,1.62-0.9,2.26c-0.6,0.64-1.33,0.98-2.18,1.03c-0.12,0-0.19,0.06-0.19,0.17v1.34c0,0.11,0.06,0.17,0.19,0.17
	c1.33-0.04,2.46-0.55,3.39-1.51c0.93-0.97,1.39-2.12,1.39-3.45c0-0.72-0.14-1.39-0.42-2.01c0.78-0.97,1.17-2.07,1.17-3.31
	c0-0.95-0.24-1.83-0.71-2.64c-0.47-0.81-1.11-1.45-1.92-1.92s-1.68-0.7-2.62-0.7c-1.56,0-2.85,0.58-3.88,1.74
	c-0.82-0.44-1.72-0.66-2.71-0.66c-1.41,0-2.67,0.44-3.76,1.32s-1.79,2-2.1,3.36c-1.11,0.26-2.02,0.84-2.74,1.74
	S1.51,15.74,1.51,16.89z M6.91,23.75c0,0.17,0.05,0.33,0.16,0.49c0.11,0.16,0.27,0.27,0.49,0.33c0.11,0.02,0.2,0.04,0.27,0.04
	c0.39,0,0.65-0.21,0.77-0.64l1.58-5.88c0.07-0.24,0.04-0.46-0.08-0.67c-0.12-0.21-0.3-0.33-0.53-0.38
	c-0.22-0.07-0.43-0.05-0.63,0.07c-0.2,0.11-0.34,0.28-0.41,0.51l-1.58,5.91C6.93,23.66,6.91,23.73,6.91,23.75z M9.52,26.83
	c0,0.19,0.05,0.36,0.15,0.52c0.1,0.16,0.27,0.26,0.52,0.3c0.11,0.02,0.2,0.04,0.26,0.04c0.16,0,0.31-0.06,0.45-0.17
	c0.14-0.12,0.23-0.28,0.27-0.48l2.4-8.93c0.06-0.23,0.04-0.45-0.07-0.64s-0.28-0.33-0.5-0.4c-0.23-0.07-0.45-0.05-0.65,0.07
	c-0.2,0.11-0.34,0.28-0.4,0.51l-2.4,8.93C9.53,26.73,9.52,26.82,9.52,26.83z M9.94,4.6c0,0.24,0.08,0.44,0.25,0.61l0.65,0.66
	c0.19,0.15,0.4,0.22,0.62,0.22c0.21,0,0.41-0.08,0.58-0.23c0.17-0.16,0.26-0.35,0.26-0.59c0-0.24-0.08-0.46-0.24-0.64l-0.64-0.65
	c-0.18-0.17-0.38-0.25-0.6-0.25c-0.24,0-0.45,0.09-0.62,0.26C10.03,4.16,9.94,4.37,9.94,4.6z M13.67,23.77
	c0,0.16,0.05,0.32,0.15,0.47s0.26,0.26,0.46,0.32c0.11,0.02,0.2,0.04,0.25,0.04c0.17,0,0.34-0.05,0.49-0.15
	c0.15-0.1,0.25-0.26,0.3-0.49l1.58-5.88c0.06-0.23,0.04-0.45-0.07-0.64c-0.11-0.2-0.28-0.33-0.5-0.4c-0.24-0.07-0.45-0.05-0.65,0.07
	c-0.2,0.11-0.33,0.28-0.39,0.51l-1.58,5.91C13.69,23.68,13.67,23.76,13.67,23.77z M15.3,9.03c0.71-0.67,1.53-1,2.48-1
	c0.98,0,1.82,0.35,2.5,1.04c0.69,0.69,1.03,1.53,1.03,2.52c0,0.62-0.17,1.24-0.52,1.85c-0.97-0.97-2.13-1.45-3.49-1.45h-0.33
	C16.7,10.81,16.14,9.83,15.3,9.03z M16.92,3.78c0,0.23,0.08,0.43,0.25,0.59c0.17,0.16,0.37,0.24,0.61,0.24
	c0.23,0,0.43-0.08,0.59-0.23c0.16-0.16,0.24-0.35,0.24-0.59V1.73c0-0.26-0.08-0.47-0.23-0.63c-0.16-0.16-0.35-0.24-0.59-0.24
	c-0.25,0-0.46,0.08-0.62,0.25s-0.24,0.37-0.24,0.62V3.78z M22.45,6.06c0,0.24,0.09,0.44,0.27,0.59c0.14,0.16,0.32,0.24,0.55,0.26
	c0.23,0.02,0.44-0.07,0.62-0.26l1.44-1.43c0.18-0.17,0.26-0.38,0.26-0.63c0-0.24-0.08-0.45-0.25-0.61
	c-0.17-0.16-0.37-0.24-0.61-0.24c-0.21,0-0.4,0.08-0.58,0.25l-1.43,1.44C22.54,5.6,22.45,5.81,22.45,6.06z M23.26,17.91
	c0,0.24,0.08,0.45,0.24,0.63l0.65,0.63c0.18,0.14,0.38,0.21,0.6,0.21l0.02,0.02c0.23,0,0.42-0.08,0.58-0.24
	c0.16-0.16,0.24-0.37,0.24-0.61c0-0.24-0.09-0.43-0.26-0.58l-0.62-0.66c-0.18-0.16-0.39-0.24-0.62-0.24s-0.43,0.08-0.59,0.25
	S23.26,17.67,23.26,17.91z M24.72,11.58c0,0.24,0.09,0.43,0.26,0.59c0.18,0.18,0.38,0.26,0.62,0.26h2.03c0.24,0,0.44-0.08,0.61-0.25
	c0.17-0.17,0.25-0.37,0.25-0.6c0-0.24-0.08-0.44-0.25-0.61s-0.37-0.26-0.61-0.26H25.6c-0.24,0-0.44,0.09-0.62,0.26
	C24.8,11.14,24.72,11.34,24.72,11.58z"/>
</svg>
